assets/build/img/logo__web.svg

<svg width="131" height="131" viewBox="0 0 131 131" fill="none" xmlns="http://www.w3.org/2000/svg">
<path d="M92.6029 131H38.3965C38.3965 125.641 42.4416 121.296 47.4309 121.296H83.5685C88.5577 121.296 92.6029 125.641 92.6029 131Z" fill="#F2F2F2"/>
<path d="M81.3095 121.296H49.6904L54.2063 101.889H76.7936L81.3095 121.296Z" fill="#C6C6C7"/>
<path d="M131 82.482H0V8.49168C0 3.80065 3.53854 0 7.90605 0H123.094C127.461 0 131 3.80065 131 8.49168V82.482Z" fill="white"/>
<path d="M123.094 101.889H7.90605C3.54109 101.889 0 98.0885 0 93.3974V82.4819H131V93.3974C131 98.0885 127.461 101.889 123.094 101.889Z" fill="#F2F2F2"/>
<path d="M110.672 72.7784H76.7934C75.5448 72.7784 74.5342 71.6929 74.5342 70.3519C74.5342 69.0135 75.5448 67.9253 76.7934 67.9253H110.672C111.92 67.9253 112.931 69.0108 112.931 70.3519C112.931 71.6902 111.92 72.7784 110.672 72.7784Z" fill="#FDD762"/>
<path d="M42.9123 58.2216H20.3276C19.079 58.2216 18.0684 57.1333 18.0684 55.795C18.0684 54.4567 19.079 53.3684 20.3276 53.3684H42.9149C44.1634 53.3684 45.1741 54.4567 45.1741 55.795C45.1741 57.1333 44.1635 58.2216 42.9123 58.2216Z" fill="#FDD762"/>
<path d="M99.3778 58.2216H65.4995C64.2509 58.2216 63.2402 57.1333 63.2402 55.795C63.2402 54.4567 64.2509 53.3684 65.4995 53.3684H99.3778C100.626 53.3684 101.637 54.4567 101.637 55.795C101.637 57.1361 100.629 58.2216 99.3778 58.2216Z" fill="#FDD762"/>
<path d="M54.2059 58.2216C53.9117 58.2216 53.62 58.1502 53.3488 58.0265C53.0545 57.9056 52.8294 57.7352 52.6042 57.5181C52.1948 57.0564 51.9492 56.4518 51.9492 55.795C51.9492 55.1382 52.1948 54.5336 52.6042 54.072C52.8294 53.8549 53.0571 53.6845 53.3488 53.5636C54.1598 53.2008 55.1782 53.3932 55.8101 54.072C56.2169 54.5336 56.4651 55.163 56.4651 55.795C56.4651 56.4243 56.2169 57.0564 55.8101 57.5181C55.3803 57.9551 54.7944 58.2216 54.2059 58.2216Z" fill="#FDD762"/>
<path d="M65.4999 72.7784H31.6215C30.3729 72.7784 29.3623 71.6929 29.3623 70.3519C29.3623 69.0135 30.3729 67.9253 31.6215 67.9253H65.4999C66.7485 67.9253 67.7591 69.0108 67.7591 70.3519C67.7591 71.6929 66.7485 72.7784 65.4999 72.7784Z" fill="#FDD762"/>
<path d="M20.328 72.7783C20.0337 72.7783 19.7421 72.7041 19.4708 72.5832C19.1996 72.4623 18.9514 72.2919 18.7263 72.0748C18.3169 71.6131 18.0713 71.0085 18.0713 70.3517C18.0713 70.0357 18.1378 69.7196 18.2529 69.4311C18.3655 69.1151 18.5242 68.8732 18.7263 68.6314C19.2687 68.0735 20.0363 67.8317 20.7578 67.9773C20.919 68.0021 21.0521 68.0515 21.1902 68.123C21.3233 68.1725 21.4614 68.2439 21.574 68.3401C21.7071 68.4363 21.8222 68.5352 21.9348 68.6314C22.1369 68.8732 22.2955 69.1178 22.4081 69.4311C22.5207 69.7224 22.5898 70.0384 22.5898 70.3517C22.5898 71.0058 22.3416 71.6131 21.9348 72.0748C21.8222 72.171 21.7071 72.2699 21.574 72.3661C21.4614 72.4623 21.3233 72.5365 21.1902 72.5832C21.0521 72.6574 20.919 72.7041 20.7578 72.7288C20.6222 72.7536 20.4636 72.7783 20.328 72.7783Z" fill="#FDD762"/>
<path d="M110.672 58.2216C110.534 58.2216 110.378 58.1969 110.242 58.1721C110.083 58.1474 109.948 58.1007 109.812 58.0265C109.677 57.977 109.541 57.9056 109.403 57.8094C109.293 57.7132 109.18 57.6143 109.065 57.5181C108.656 57.0564 108.41 56.4271 108.41 55.795C108.41 55.1657 108.656 54.5336 109.065 54.072L109.403 53.7807C109.541 53.6845 109.677 53.6103 109.812 53.5636C109.948 53.4921 110.083 53.4426 110.242 53.4179C110.966 53.2475 111.754 53.5141 112.276 54.072C112.366 54.1929 112.458 54.3138 112.547 54.4594C112.637 54.5804 112.703 54.726 112.75 54.8717C112.819 55.0173 112.862 55.163 112.883 55.3333C112.908 55.479 112.929 55.6494 112.929 55.795C112.929 55.9407 112.906 56.1111 112.883 56.2814C112.862 56.4271 112.816 56.5727 112.75 56.7184C112.703 56.864 112.637 57.0097 112.547 57.1553C112.458 57.2763 112.366 57.3972 112.276 57.5181C112.164 57.6143 112.048 57.7132 111.938 57.8094C111.803 57.9056 111.665 57.9798 111.532 58.0265C111.393 58.0979 111.26 58.1474 111.099 58.1721C110.966 58.1969 110.808 58.2216 110.672 58.2216Z" fill="#FDD762"/>
<path d="M110.672 29.111H76.7934C75.5448 29.111 74.5342 28.0227 74.5342 26.6844C74.5342 25.3461 75.5448 24.2578 76.7934 24.2578H110.672C111.92 24.2578 112.931 25.3461 112.931 26.6844C112.931 28.0227 111.92 29.111 110.672 29.111Z" fill="#FDD762"/>
<path d="M110.672 43.6676H88.0844C86.8358 43.6676 85.8252 42.5794 85.8252 41.241C85.8252 39.9027 86.8358 38.8145 88.0844 38.8145H110.672C111.92 38.8145 112.931 39.9027 112.931 41.241C112.931 42.5794 111.92 43.6676 110.672 43.6676Z" fill="#FDD762"/>
<path d="M70.0154 43.6676H65.4995C64.2509 43.6676 63.2402 42.5794 63.2402 41.241C63.2402 39.9027 64.2509 38.8145 65.4995 38.8145H70.0154C71.264 38.8145 72.2747 39.9027 72.2747 41.241C72.2747 42.5794 71.2666 43.6676 70.0154 43.6676Z" fill="#FDD762"/>
<path d="M99.3778 14.5575H65.4995C64.2509 14.5575 63.2402 13.4693 63.2402 12.1309C63.2402 10.7926 64.2509 9.70435 65.4995 9.70435H99.3778C100.626 9.70435 101.637 10.7926 101.637 12.1309C101.637 13.4693 100.629 14.5575 99.3778 14.5575Z" fill="#FDD762"/>
<path d="M110.672 14.5568C110.534 14.5568 110.378 14.5321 110.242 14.5074C110.083 14.4826 109.948 14.4359 109.812 14.3617C109.677 14.3122 109.541 14.2408 109.403 14.1446C109.293 14.0484 109.18 13.9495 109.065 13.8533C108.656 13.3916 108.41 12.7623 108.41 12.1302C108.41 11.4982 108.656 10.8688 109.065 10.4072L109.403 10.1159C109.541 10.0197 109.677 9.94548 109.812 9.89876C109.948 9.82731 110.083 9.77785 110.242 9.75311C110.966 9.58273 111.754 9.8493 112.276 10.4072C112.366 10.5281 112.458 10.649 112.547 10.7946C112.637 10.9156 112.703 11.0612 112.75 11.2069C112.819 11.3525 112.862 11.4982 112.883 11.6686C112.908 11.8142 112.929 11.9846 112.929 12.1302C112.929 12.2759 112.906 12.4463 112.883 12.6167C112.862 12.7623 112.816 12.908 112.75 13.0536C112.703 13.1993 112.637 13.3449 112.547 13.4906C112.458 13.6115 112.366 13.7324 112.276 13.8533C112.164 13.9495 112.048 14.0484 111.938 14.1446C111.803 14.2408 111.665 14.315 111.532 14.3617C111.393 14.4332 111.26 14.4826 111.099 14.5074C110.966 14.5321 110.808 14.5568 110.672 14.5568Z" fill="#FDD762"/>
<path d="M67.7592 29.1108C67.1708 29.1108 66.5823 28.8443 66.155 28.4073C65.9529 28.1655 65.7942 27.8989 65.6817 27.6076C65.5691 27.3163 65.5 27.0003 65.5 26.6842C65.5 26.3682 65.5691 26.0549 65.6817 25.7636C65.7942 25.4723 65.9529 25.2057 66.155 24.9639C66.6744 24.406 67.465 24.1642 68.1865 24.3099C68.3477 24.3346 68.4808 24.3813 68.6189 24.4555C68.752 24.505 68.8901 24.5764 69.0027 24.6726C69.1358 24.7688 69.2509 24.8677 69.3405 24.9639C69.5656 25.2057 69.7242 25.4723 69.8368 25.7636C69.9494 26.0549 70.0185 26.3709 70.0185 26.6842C70.0185 27.0003 69.9494 27.3136 69.8368 27.6049C69.7242 27.8962 69.5656 28.1627 69.3405 28.4046C69.2509 28.5007 69.1358 28.5997 69.0027 28.6959C68.8901 28.792 68.752 28.8662 68.6189 28.913C68.4808 28.9844 68.3477 29.0339 68.1865 29.0586C68.0535 29.0861 67.8948 29.1108 67.7592 29.1108Z" fill="#FDD762"/>
<path d="M79.0522 43.6676C78.4407 43.6676 77.8753 43.4011 77.448 42.9641C77.0386 42.5024 76.793 41.8731 76.793 41.241C76.793 40.6117 77.0386 39.9797 77.448 39.518C78.2846 38.6193 79.8198 38.6193 80.6564 39.518C81.0633 39.9797 81.3114 40.609 81.3114 41.241C81.3114 41.4114 81.2884 41.5571 81.2654 41.7275C81.2449 41.8731 81.1989 42.0187 81.1323 42.1644C81.0863 42.31 81.0198 42.4557 80.9302 42.6014C80.8407 42.7223 80.7486 42.8432 80.659 42.9641C80.2266 43.4011 79.6612 43.6676 79.0522 43.6676Z" fill="#FDD762"/>
<path d="M20.3281 43.6676H51.9472V9.70361H20.3281V43.6676Z" fill="#FDD762"/>
</svg>

<svg width="131" height="131" fill="none" xmlns="http://www.w3.org/2000/svg"><path d="M92.603 131H38.397c0-5.359 4.045-9.704 9.034-9.704h36.138c4.989 0 9.034 4.345 9.034 9.704z" fill="#F2F2F2"/><path d="M81.31 121.296H49.69l4.516-19.407h22.588l4.516 19.407z" fill="#C6C6C7"/><path d="M131 82.482H0V8.492C0 3.8 3.539 0 7.906 0h115.188C127.461 0 131 3.8 131 8.492v73.99z" fill="#fff"/><path d="M123.094 101.889H7.906c-4.365 0-7.906-3.8-7.906-8.492V82.482h131v10.915c0 4.691-3.539 8.492-7.906 8.492z" fill="#F2F2F2"/><path d="M110.672 72.778H76.793c-1.248 0-2.259-1.085-2.259-2.426 0-1.339 1.01-2.427 2.26-2.427h33.878c1.248 0 2.259 1.086 2.259 2.427 0 1.338-1.011 2.426-2.259 2.426zM42.912 58.222H20.328c-1.249 0-2.26-1.089-2.26-2.427s1.011-2.427 2.26-2.427h22.587c1.248 0 2.26 1.089 2.26 2.427s-1.011 2.427-2.263 2.427zM99.378 58.222H65.499c-1.248 0-2.259-1.089-2.259-2.427s1.01-2.427 2.26-2.427h33.878c1.248 0 2.259 1.089 2.259 2.427 0 1.341-1.008 2.427-2.26 2.427zM54.206 58.222c-.294 0-.586-.072-.857-.196a2.31 2.31 0 01-.745-.508 2.59 2.59 0 010-3.446c.225-.217.453-.388.745-.508a2.191 2.191 0 012.461.508c.407.462.655 1.091.655 1.723 0 .63-.248 1.261-.655 1.723-.43.437-1.016.704-1.604.704zM65.5 72.778H31.62c-1.248 0-2.259-1.085-2.259-2.426 0-1.339 1.01-2.427 2.26-2.427H65.5c1.249 0 2.26 1.086 2.26 2.427 0 1.34-1.011 2.426-2.26 2.426zM20.328 72.778c-.294 0-.586-.074-.857-.195a2.589 2.589 0 01-.745-.508 2.59 2.59 0 01-.655-1.723c0-.316.067-.632.182-.92.113-.317.271-.559.473-.8a2.23 2.23 0 012.032-.655c.161.025.294.075.432.146.133.05.271.12.384.217.133.096.248.195.36.291.203.242.361.487.474.8.113.291.182.607.182.92 0 .655-.248 1.262-.655 1.724-.113.096-.228.195-.361.291-.113.096-.25.17-.384.217-.138.074-.271.121-.432.146-.136.025-.294.05-.43.05zM110.672 58.222c-.138 0-.294-.025-.43-.05a1.276 1.276 0 01-.43-.145 1.798 1.798 0 01-.409-.218c-.11-.096-.223-.195-.338-.29a2.64 2.64 0 01-.655-1.724c0-.63.246-1.261.655-1.723l.338-.291c.138-.096.274-.17.409-.217.136-.072.271-.121.43-.146.724-.17 1.512.096 2.034.654.09.12.182.242.271.387.09.121.156.267.203.413.069.145.112.291.133.461.025.146.046.316.046.462 0 .146-.023.316-.046.486a1.623 1.623 0 01-.133.437 1.99 1.99 0 01-.203.437c-.089.121-.181.242-.271.363l-.338.291a1.66 1.66 0 01-.406.218c-.139.07-.272.12-.433.145a2.47 2.47 0 01-.427.05zM110.672 29.111H76.793c-1.248 0-2.259-1.088-2.259-2.427 0-1.338 1.01-2.426 2.26-2.426h33.878c1.248 0 2.259 1.088 2.259 2.426 0 1.339-1.011 2.427-2.259 2.427zM110.672 43.668H88.084c-1.248 0-2.259-1.089-2.259-2.427s1.01-2.426 2.26-2.426h22.587c1.248 0 2.259 1.088 2.259 2.426s-1.011 2.427-2.259 2.427zM70.015 43.668H65.5c-1.248 0-2.259-1.089-2.259-2.427s1.01-2.426 2.26-2.426h4.515c1.249 0 2.26 1.088 2.26 2.426s-1.008 2.427-2.26 2.427zM99.378 14.557H65.499c-1.248 0-2.259-1.088-2.259-2.426s1.01-2.427 2.26-2.427h33.878c1.248 0 2.259 1.089 2.259 2.427s-1.008 2.426-2.26 2.426zM110.672 14.557c-.138 0-.294-.025-.43-.05a1.278 1.278 0 01-.43-.145 1.798 1.798 0 01-.409-.217c-.11-.097-.223-.195-.338-.292a2.64 2.64 0 01-.655-1.723c0-.632.246-1.261.655-1.723l.338-.291c.138-.096.274-.17.409-.217a1.34 1.34 0 01.43-.146c.724-.17 1.512.096 2.034.654.09.121.182.242.271.388.09.12.156.266.203.412.069.145.112.291.133.462.025.145.046.316.046.461 0 .146-.023.316-.046.487a1.622 1.622 0 01-.133.437 1.99 1.99 0 01-.203.437l-.271.362c-.112.097-.228.195-.338.292a1.66 1.66 0 01-.406.217c-.139.071-.272.12-.433.145a2.48 2.48 0 01-.427.05zM67.76 29.11c-.59 0-1.178-.266-1.605-.703a2.832 2.832 0 01-.473-.8 2.583 2.583 0 01-.182-.923c0-.316.07-.63.182-.92.112-.292.27-.558.473-.8.52-.558 1.31-.8 2.031-.654.162.025.295.071.433.146.133.049.271.12.384.217.133.096.248.195.338.29.225.243.383.51.496.8.112.292.181.608.181.921 0 .316-.069.63-.181.92a2.45 2.45 0 01-.496.8c-.09.097-.205.196-.338.292-.113.096-.251.17-.384.217-.138.071-.271.12-.433.146a2.242 2.242 0 01-.427.052zM79.052 43.668c-.611 0-1.177-.267-1.604-.704a2.639 2.639 0 01-.655-1.723c0-.63.246-1.261.655-1.723.837-.899 2.372-.899 3.208 0 .407.462.655 1.091.655 1.723 0 .17-.023.316-.046.486-.02.146-.066.292-.133.437a1.96 1.96 0 01-.202.437l-.271.363c-.432.437-.998.704-1.607.704zM20.328 43.668h31.62V9.704h-31.62v33.964z" fill="#FDD762"/></svg>
